X:1
T:[ID 8-94a]
T:[ID 8-94a]
T:Bezeichnung standardisiert: Menuett Menuetto
T:Urheber unbekannt Datum in der hier transkribierten schriftlichen Quelle: 1792
C:Urheber unbekannt
C:Datum in der hier transkribierten schriftlichen Quelle: 1792
L:1/8
M:3/4
K:C
V:1 treble 
V:1
 c2 c2 eg | d2 d2 d2 | c2 c2 eg | G2 G2 G2 | f2 f2 df | e2 e2 ce | d2 c2 B2 | c6 :: fdBGBd | %9
 c2 c2 c2 | fdBGBd | c2 c4 | c2 c2 eg | gfedcB | c2 e2 d2 | c6 :| %16

